X:152
T:Rigaudon de Sveran
O:France
A:Provence
C:Trad.
R:Rigaudon
M:2/4
L:1/8
K:Gminor
Gd dc/d/|ed/c/ dg|ce dc/B/|A/B/c/A/ BG|Gd dc/d/|ed/c/ dg|ce dc/B/|A/G/A/^F/ G2|:
A/G/A/B/ Ac |cB/A/ Bd|dc/B/ AG|^FG A2|G/A/B/c/ d/=e/^f/g/|ce dg|ce dc/B/|A/G/A/^F/ G2:|
%%footer $D   Galouvielle-MBe 2008 \nScottish (--)
